X:1
T:[ID 2-26b]
T:[ID 2-26b]
T:Bezeichnung standardisiert: Menuett Menuet 20.
T:Urheber unbekannt Datum in der hier transkribierten schriftlichen Quelle: 1775
C:Urheber unbekannt
C:Datum in der hier transkribierten schriftlichen Quelle: 1775
L:1/8
M:3/4
K:D
V:1 treble 
V:1
 F3 AGF | FAGEFA | dAFDGE | F4 FE | D2 B2 A^G | AcBA^GE | A2 DCB,D | C6 :: F4 (3FED | GG,B,D B,2 | %10
 ^G4 (3GFE | AA,CE C2 | c4 (3cBA | dAFDFf | e2 d2 GE | F6 :| %16

